X: 923
T: Squirrel Hunters, The
B: jims roots
M:4/4
L:1/8
R: reel
Q: 1/4=100
K:G
V:1 
%Z: The Merry Highlander
 |:"Em"e3d BABd | efed B2 BA | "G"GABc d2 dB | dBcA Bcde |
"Em"e3d B2 Bd | efed BdBA | "G"GABc dABd | "D"[D6A6]:|
 |:"Em"edeg a2ag | edef g2BA | "G"GABc d2 dB | dBcA Bcde|
"Em"edeg abag | edef geBA | "G"GABc dABd |"D"[A6D6]:|
% abcbook-tune_id 6298c287885aab6c33fc0556


% abcbook-boost 0
% abcbook-tablature 
% abcbook-transpose 
% abcbook-lastupdated 1654178440824
% abcbook-soundfonts 
% abcbook-repeats 1


